X: 716
T: KITTY MAGEE
M:6/8
L:1/8
B:O'NEILL'S 716
Z:Transcribed by A. LEE WORMAN
K:Dmix
d|d2 A AFA|d3 efg|f2 d e2 d|c2 A ABc|
d2 A AFA|d3 efg|f2 d e2 c|d>ed d2:|
||A|d2 f a2 f|e2 f g3|f2 d e2 d|c2 A A3|
aba g2 f|e2 f g3|f2 d e2 c|d>ed d2:|


